src/assets/duotone/Dent.svg

<svg width="24" height="24" viewBox="0 0 24 24"  xmlns="http://www.w3.org/2000/svg">
<path opacity="0.4" d="M12 22C17.5228 22 22 17.5228 22 12C22 6.47715 17.5228 2 12 2C6.47715 2 2 6.47715 2 12C2 17.5228 6.47715 22 12 22Z" />
<path d="M16.8399 13.2696L15.3799 12.4296C15.0499 12.2396 15.0499 11.7596 15.3799 11.5596L16.8399 10.7196C17.4699 10.3596 17.6799 9.54961 17.3199 8.91961C16.9599 8.28961 16.1499 8.07961 15.5199 8.43961L14.0599 9.27961C13.7299 9.46961 13.3099 9.22961 13.3099 8.84961V7.16961C13.3099 6.44961 12.7199 5.84961 11.9899 5.84961C11.2599 5.84961 10.6699 6.43961 10.6699 7.16961V8.84961C10.6699 9.22961 10.2499 9.47961 9.91994 9.27961L8.45994 8.43961C7.82994 8.07961 7.01995 8.28961 6.65995 8.91961C6.29995 9.54961 6.50994 10.3596 7.13994 10.7196L8.59994 11.5596C8.92994 11.7496 8.92994 12.2296 8.59994 12.4296L7.13994 13.2696C6.50994 13.6296 6.29995 14.4396 6.65995 15.0696C7.01995 15.6996 7.82994 15.9096 8.45994 15.5496L9.91994 14.7096C10.2499 14.5196 10.6699 14.7596 10.6699 15.1396V16.8196C10.6699 17.5396 11.2599 18.1396 11.9899 18.1396C12.7199 18.1396 13.3099 17.5496 13.3099 16.8196V15.1396C13.3099 14.7596 13.7299 14.5096 14.0599 14.7096L15.5199 15.5496C16.1499 15.9096 16.9599 15.6996 17.3199 15.0696C17.6899 14.4496 17.4699 13.6396 16.8399 13.2696Z" />
</svg>

<?xml version="1.0" encoding="UTF-8"?>
<svg width="24" height="24" viewBox="0 0 24 24" xmlns="http://www.w3.org/2000/svg">
 <path d="m12 22c5.5228 0 10-4.4772 10-10 0-5.5228-4.4772-10-10-10-5.5228 0-10 4.4772-10 10 0 5.5228 4.4772 10 10 10z" opacity=".4"/>
 <path d="m16.84 13.27-1.46-0.84c-0.33-0.19-0.33-0.67 0-0.87l1.46-0.84c0.63-0.36 0.84-1.17 0.48-1.8s-1.17-0.84-1.8-0.48l-1.46 0.84c-0.33 0.19-0.75-0.05-0.75-0.43v-1.68c0-0.72-0.59-1.32-1.32-1.32s-1.32 0.59-1.32 1.32v1.68c0 0.38-0.42 0.63-0.74996 0.43l-1.46-0.84c-0.63-0.36-1.44-0.15-1.8 0.48s-0.15001 1.44 0.47999 1.8l1.46 0.84c0.33 0.19 0.33 0.67 0 0.87l-1.46 0.84c-0.63 0.36-0.83999 1.17-0.47999 1.8s1.17 0.84 1.8 0.48l1.46-0.84c0.32996-0.19 0.74996 0.05 0.74996 0.43v1.68c0 0.72 0.59 1.32 1.32 1.32s1.32-0.59 1.32-1.32v-1.68c0-0.38 0.42-0.63 0.75-0.43l1.46 0.84c0.63 0.36 1.44 0.15 1.8-0.48 0.37-0.62 0.15-1.43-0.48-1.8z"/>
</svg>
